X: 1229
T: Athol's Father's Set Tune
B: australian traditional tunes wiki
M:4/4
L:1/8
Q: 1/4=100
K:D
V:1 
F3G|"D"A2f2e2d2|"A7"c2e2d2cB|"D"AdFA D2F2|A6GG|
"A7"F2G2E2G2|c3cc2AA|B2A2F2 A2|"D"d3dd2AG|
"D"A2f2e2d2|"A7"c2e2d2cB|"D"AdFA D2F2|A6GG|
"A7"F2G2E2G2|"A7"c6A2|c2B2GFE2|"D"D6d2||
"D"f2deA4|f2deA3e|"D"a2a2"G"b2b2|"D"a4a2aa|
"A7"a2g2e2ge|c3cc2aa|"G"b2a2f2a>e|"D"d3dd3d|
"D"f2deA4|f2deA3e|"D"a2a2"G"b2b2|"D"a4a2aa|
"A7"a2g2e2ge|c2e2A2"G"fe|"D"dfAdF2A2|d4d2||
% abcbook-tune_id 6342d53a0359c44c6f67564f


% abcbook-boost 0
% abcbook-tablature 
% abcbook-transpose 
% abcbook-lastupdated 1665324355021
% abcbook-soundfonts 
% abcbook-repeats 1
% NFF Book 2006

